X:0247
T:Neapolitan Threshers.
M:6/8
L:1/8
Q:3/8=120
I: :: ::
Z:Jack Campin * www.campin.me.uk * 2009
K:D
A|FED AGF|B2A A2A|dcB edc| dAF D2
A|FED AGF|B2A A2A|dcB edc|Td3  d2:|
A|def efg|fed cde|dcB Bcd| cBA A2
A|Bdd Add|Gdd Fdd|Edd edc| dAF D2:|

